svgs/thin/file-spreadsheet.svg

<svg xmlns="http://www.w3.org/2000/svg" viewBox="0 0 384 512"><!--! Font Awesome Pro 6.6.0 by @fontawesome - https://fontawesome.com License - https://fontawesome.com/license (Commercial License) Copyright 2024 Fonticons, Inc. --><path d="M16 448L16 64c0-26.5 21.5-48 48-48l140.1 0c1.3 0 2.6 .1 3.9 .2L208 136c0 22.1 17.9 40 40 40l119.8 0c.2 1.3 .2 2.6 .2 3.9L368 448c0 26.5-21.5 48-48 48L64 496c-26.5 0-48-21.5-48-48zM358.6 157.3c.9 .9 1.7 1.8 2.4 2.7L248 160c-13.3 0-24-10.7-24-24l0-113.1c1 .8 1.9 1.6 2.7 2.4L358.6 157.3zM64 0C28.7 0 0 28.7 0 64L0 448c0 35.3 28.7 64 64 64l256 0c35.3 0 64-28.7 64-64l0-268.1c0-12.7-5.1-24.9-14.1-33.9L238.1 14.1c-9-9-21.2-14.1-33.9-14.1L64 0zM80 384l40 0 0 48-24 0c-8.8 0-16-7.2-16-16l0-32zm0-16l0-48 40 0 0 48-40 0zm56 64l0-48 48 0 0 48-48 0zm0-64l0-48 48 0 0 48-48 0zm64 64l0-48 48 0 0 48-48 0zm0-112l48 0 0 48-48 0 0-48zm64 112l0-48 40 0 0 32c0 8.8-7.2 16-16 16l-24 0zm0-64l0-48 40 0 0 48-40 0zm56 8l0-8 0-48 0-8 0-8 0-48c0-17.7-14.3-32-32-32l-96 0-96 0c-17.7 0-32 14.3-32 32l0 48 0 8 0 8 0 48 0 8 0 8 0 32c0 17.7 14.3 32 32 32l24 0 8 0 8 0 48 0 8 0 8 0 48 0 8 0 8 0 24 0c17.7 0 32-14.3 32-32l0-32 0-8zM304 256l0 48-48 0-64 0-64 0-48 0 0-48c0-8.8 7.2-16 16-16l96 0 96 0c8.8 0 16 7.2 16 16z"/></svg>

<svg xmlns="http://www.w3.org/2000/svg" viewBox="0 0 384 512"><!--! Font Awesome Pro 6.4.0 by @fontawesome - https://fontawesome.com License - https://fontawesome.com/license (Commercial License) Copyright 2023 Fonticons, Inc. --><path d="M16 448V64c0-26.5 21.5-48 48-48H204.1c1.3 0 2.6 .1 3.9 .2V136c0 22.1 17.9 40 40 40H367.8c.2 1.3 .2 2.6 .2 3.9V448c0 26.5-21.5 48-48 48H64c-26.5 0-48-21.5-48-48zM358.6 157.3c.9 .9 1.7 1.8 2.4 2.7H248c-13.3 0-24-10.7-24-24V22.9c1 .8 1.9 1.6 2.7 2.4L358.6 157.3zM64 0C28.7 0 0 28.7 0 64V448c0 35.3 28.7 64 64 64H320c35.3 0 64-28.7 64-64V179.9c0-12.7-5.1-24.9-14.1-33.9L238.1 14.1c-9-9-21.2-14.1-33.9-14.1H64zM80 384h40v48H96c-8.8 0-16-7.2-16-16V384zm0-16V320h40v48H80zm56 64V384h48v48H136zm0-64V320h48v48H136zm64 64V384h48v48H200zm0-112h48v48H200V320zm64 112V384h40v32c0 8.8-7.2 16-16 16H264zm0-64V320h40v48H264zm56 8v-8V320v-8-8V256c0-17.7-14.3-32-32-32H192 96c-17.7 0-32 14.3-32 32v48 8 8 48 8 8 32c0 17.7 14.3 32 32 32h24 8 8 48 8 8 48 8 8 24c17.7 0 32-14.3 32-32V384v-8zM304 256v48H256 192 128 80V256c0-8.8 7.2-16 16-16h96 96c8.8 0 16 7.2 16 16z"/></svg>
